X:574
T: "Der Wunsch"
N: Z1254
O: Europa, Mitteleuropa, Schweiz
R: Liebes - Lied, verlassene Liebe
M: 2/4
L: 1/16
K: G
Bc | d2B2c2A2 | BABcB2
Bc | d2B2c2A2 | B4z2
B2 | B3AA2c2 | c3BB2
d2 | g2d2BdcA | G4z2

